src/images_karasa_jaga_svg/cmd/sc_basicshapes.circle-pie.svg

<svg height="16" viewBox="0 0 4.2333333 4.2333335" width="16" xmlns="http://www.w3.org/2000/svg" xmlns:xlink="http://www.w3.org/1999/xlink"><linearGradient id="a" gradientUnits="userSpaceOnUse" x1="64" x2="64" y1="131.54474" y2="-3.544517"><stop offset="0" stop-color="#7c9fcf"/><stop offset=".5" stop-color="#7c9ece"/><stop offset="1" stop-color="#7b9dcf"/></linearGradient><linearGradient id="b" gradientUnits="userSpaceOnUse" x1="63.999996" x2="63.999996" y1="121.89668" y2="6.103257"><stop offset="0" stop-color="#fff"/><stop offset=".50643778" stop-color="#fff"/><stop offset=".82296139" stop-color="#f1f1f1"/><stop offset=".90625" stop-color="#eaeaea"/><stop offset="1" stop-color="#dfdfdf"/></linearGradient><path d="m64 8.0078125a55.991227 55.991227 0 0 0 -55.9921875 55.9921875 55.991227 55.991227 0 0 0 55.9921875 55.99219 55.991227 55.991227 0 0 0 55.99219-55.99219 55.991227 55.991227 0 0 0 -.63281-8h-47.35938v-47.3476562a55.991227 55.991227 0 0 0 -8-.6445313z" fill="url(#a)" transform="scale(.03307292)"/><path d="m64 16.005859a47.993573 47.993573 0 0 0 -47.994141 47.994141 47.993573 47.993573 0 0 0 47.994141 47.99414 47.993573 47.993573 0 0 0 47.99414-47.99414h-47.99414z" fill="url(#b)" transform="scale(.03307292)"/></svg>

<?xml version="1.0" encoding="UTF-8" standalone="no"?>
<!-- Created with Inkscape (http://www.inkscape.org/) -->

<svg
   xmlns:dc="http://purl.org/dc/elements/1.1/"
   xmlns:cc="http://creativecommons.org/ns#"
   xmlns:rdf="http://www.w3.org/1999/02/22-rdf-syntax-ns#"
   xmlns:svg="http://www.w3.org/2000/svg"
   xmlns="http://www.w3.org/2000/svg"
   xmlns:xlink="http://www.w3.org/1999/xlink"
   xmlns:sodipodi="http://sodipodi.sourceforge.net/DTD/sodipodi-0.dtd"
   xmlns:inkscape="http://www.inkscape.org/namespaces/inkscape"
   width="128"
   height="128"
   viewBox="0 0 33.866666 33.866668"
   version="1.1"
   id="svg8"
   inkscape:version="0.92.3 (unknown)"
   sodipodi:docname="sc_basicshapes.circle-pie.svg"
   inkscape:export-filename="/home/rizmut/Dokumen/Rizmut/Github/libreoffice-style-karasa-jaga/build/images_karasa_jaga/cmd/sc_basicshapes.circle-pie.png"
   inkscape:export-xdpi="12"
   inkscape:export-ydpi="12">
  <defs
     id="defs2">
    <linearGradient
       inkscape:collect="always"
       xlink:href="#linearGradient7422"
       id="linearGradient867"
       gradientUnits="userSpaceOnUse"
       gradientTransform="matrix(1.0553848,0,0,1.0553848,-3.5446262,-3.5445165)"
       x1="64"
       y1="128"
       x2="64"
       y2="0" />
    <linearGradient
       id="linearGradient7422">
      <stop
         style="stop-color:#7c9fcf;stop-opacity:1"
         offset="0"
         id="stop7424" />
      <stop
         id="stop5348"
         offset="0.5"
         style="stop-color:#7c9ece;stop-opacity:1" />
      <stop
         id="stop7426"
         offset="1"
         style="stop-color:#7b9dcf;stop-opacity:1" />
    </linearGradient>
    <linearGradient
       inkscape:collect="always"
       xlink:href="#linearGradient3369"
       id="linearGradient861"
       x1="64"
       y1="128"
       x2="64"
       y2="0"
       gradientUnits="userSpaceOnUse"
       gradientTransform="matrix(0.90463616,0,0,0.90463616,6.1032816,6.1032567)" />
    <linearGradient
       id="linearGradient3369">
      <stop
         id="stop3372"
         offset="0"
         style="stop-color:#ffffff;stop-opacity:1;" />
      <stop
         style="stop-color:#ffffff;stop-opacity:1;"
         offset="0.50643778"
         id="stop3374" />
      <stop
         style="stop-color:#f1f1f1;stop-opacity:1;"
         offset="0.82296139"
         id="stop3376" />
      <stop
         id="stop3378"
         offset="0.90625"
         style="stop-color:#eaeaea;stop-opacity:1;" />
      <stop
         id="stop3384"
         offset="1"
         style="stop-color:#dfdfdf;stop-opacity:1;" />
    </linearGradient>
  </defs>
  <sodipodi:namedview
     id="base"
     pagecolor="#ffffff"
     bordercolor="#666666"
     borderopacity="1.0"
     inkscape:pageopacity="0.0"
     inkscape:pageshadow="2"
     inkscape:zoom="2.8"
     inkscape:cx="131.34591"
     inkscape:cy="47.724597"
     inkscape:document-units="mm"
     inkscape:current-layer="layer1"
     showgrid="true"
     units="px"
     inkscape:window-width="1366"
     inkscape:window-height="706"
     inkscape:window-x="0"
     inkscape:window-y="0"
     inkscape:window-maximized="1">
    <inkscape:grid
       type="xygrid"
       id="grid1421"
       spacingx="2.1166667"
       spacingy="2.1166667"
       empspacing="2" />
  </sodipodi:namedview>
  <metadata
     id="metadata5">
    <rdf:RDF>
      <cc:Work
         rdf:about="">
        <dc:format>image/svg+xml</dc:format>
        <dc:type
           rdf:resource="http://purl.org/dc/dcmitype/StillImage" />
        <dc:title></dc:title>
      </cc:Work>
    </rdf:RDF>
  </metadata>
  <g
     inkscape:label="Layer 1"
     inkscape:groupmode="layer"
     id="layer1"
     transform="translate(0,-263.13332)">
    <path
       style="fill:url(#linearGradient867);fill-opacity:1;stroke:none;stroke-width:5.12697268;stroke-linecap:round;stroke-linejoin:bevel;stroke-opacity:0.73039198"
       d="M 64 8.0078125 A 55.991227 55.991227 0 0 0 8.0078125 64 A 55.991227 55.991227 0 0 0 64 119.99219 A 55.991227 55.991227 0 0 0 119.99219 64 A 55.991227 55.991227 0 0 0 119.35938 56 L 72 56 L 72 8.6523438 A 55.991227 55.991227 0 0 0 64 8.0078125 z "
       transform="matrix(0.26458333,0,0,0.26458333,0,263.13332)"
       id="circle865" />
    <path
       style="fill:url(#linearGradient861);fill-opacity:1;stroke:none;stroke-width:4.39464855;stroke-linecap:round;stroke-linejoin:bevel;stroke-opacity:0.73039198"
       d="M 64 16.005859 A 47.993573 47.993573 0 0 0 16.005859 64 A 47.993573 47.993573 0 0 0 64 111.99414 A 47.993573 47.993573 0 0 0 111.99414 64 L 64 64 L 64 16.005859 z "
       transform="matrix(0.26458333,0,0,0.26458333,0,263.13332)"
       id="circle2" />
  </g>
</svg>
